public/editor-src/editor/icons/fa/face-grimace.svg

<svg xmlns="http://www.w3.org/2000/svg" viewBox="0 0 512 512"><!--! Font Awesome Free 6.4.0 by @fontawesome - https://fontawesome.com License - https://fontawesome.com/license/free (Icons: CC BY 4.0, Fonts: SIL OFL 1.1, Code: MIT License) Copyright 2023 Fonticons, Inc.--><path d="M256 512a256 256 0 1 0 0-512 256 256 0 1 0 0 512zm96-112h-8v-40h55.3c-3.8 22.7-23.6 40-47.3 40zm47.3-56H344v-40h8c23.8 0 43.5 17.3 47.3 40zm-71.3 0h-64v-40h64v40zm0 56h-64v-40h64v40zm-80-96v40h-64v-40h64zm0 56v40h-64v-40h64zm-80-16h-55.3c3.8-22.7 23.6-40 47.3-40h8v40zm0 56h-8c-23.8 0-43.5-17.3-47.3-40H168v40zm-23.6-192a32 32 0 1 1 64 0 32 32 0 1 1-64 0zm192-32a32 32 0 1 1 0 64 32 32 0 1 1 0-64z"/></svg>

<svg xmlns="http://www.w3.org/2000/svg" viewBox="0 0 512 512"><!--! Font Awesome Free 6.4.0 by @fontawesome - https://fontawesome.com License - https://fontawesome.com/license/free (Icons: CC BY 4.0, Fonts: SIL OFL 1.1, Code: MIT License) Copyright 2023 Fonticons, Inc. --><path d="M256 512A256 256 0 1 0 256 0a256 256 0 1 0 0 512zm96-112h-8V360l55.3 0c-3.8 22.7-23.6 40-47.3 40zm47.3-56L344 344V304h8c23.8 0 43.5 17.3 47.3 40zM328 344H264V304h64v40zm0 56H264V360h64v40zm-80-96v40l-64 0V304h64zm0 56v40H184V360l64 0zm-80-16H112.7c3.8-22.7 23.6-40 47.3-40h8v40zm0 56h-8c-23.8 0-43.5-17.3-47.3-40H168v40zM144.4 208a32 32 0 1 1 64 0 32 32 0 1 1 -64 0zm192-32a32 32 0 1 1 0 64 32 32 0 1 1 0-64z"/></svg>
